!!!COM: Gabriel Faure/
!!!CNT: Francais
!!!TXO: Francais
!!!OTL: "Larmes"
!!!LYR: Richepin
!!!OPR: 
!!!OPS: Op. 51
!!!ONM: No. 1
!!!ENC: Emily Thomas
!!!YOR: CD Sheet Music French Art Songs, The Ultimate Collection
!!!YOR: CD Sheet Music, LLC 2003
!!!ODT: 1888/
!!NB: Vocal melody and text encoded.
**kern	**silbe
=1	=1
*clefG2	*
*k[b-e-a-d-g-]	*
*M3/4	*
*MM[Molto moderato]	*
2.r	.
=2	=2
4r	.
4r	.
8r	.
{8f	{Pleu-
=3	=3
8b-	-rons
16an	nos
16an	cha-
8.f	-grins,
16f	cha-
8.en	-cun
16en	le
=4	=4
4f	no^-
8f}	-tre,}
8r	.
8r	.
{16f	{U-
16f	-ne
=5	=5
8.b-	lar-
16an	-me
8.f	tom-
16f}	-be,}
8r	.
{16en	{puis
16en	u-
=6	=6
2f	ne au-
4f}	-tre,}
=7	=7
4r	.
{4an	{Toi,
12an	qui
12gn	pleu-
12b-	-res-
=8	=8
2an}	-tu?}
4r	.
=9	=9
4r	.
8r	.
{8an	{ton
16gn	doux
16an	|
8b-	pa-
=10	=10
[4an	-ys.
16an]	|
16r	.
16an	tes
16an	pa-
8.cc	-rents
16an	loin
=11	=11
[4an	tains,
16an]}	|}
16r	.
{8cc	{ta
8ddn	fi-
8cc	-an-
=12	=12
2b-	-ce/-
4an}	-e.}
=13	=13
*k[f#c#]	*
4r	.
{4a	Moi,
12a	mon
12g#	ex-
12a	-is-
=14	=14
4.b	-ten-
8a	-ce
8g#	de/-
8f#	-pen
=15	=15
4.a	se/e
8g#	en
12g#	voe-
12f#	-ux
12e#	tra-
=16	=16
[2f#	-his!
8f#]}	|}
{8f#	{Pleu-
=17	=17
8b	-rons
16a#	nos
16a#	cha-
8.f#	-grins,
16f#	cha-
8.e#	-cun
16e#	le
=18	=18
4f#	no^-
8f#}	-tre.}
8r	.
8r	.
{16f#	{U-
16f#	-ne
=19	=19
8.b	lar-
16a#	-me
8.f#	tom-
16f#	-be,
8r	.
16e#	puis
16e#	une
=20	=20
2f#	au-
4f#}	-tre}
=21	=21
4r	.
4r	.
{4f#	{Se-
=22	=22
4b	-mons
8a	dans
8g#	la
8a	mer
8g#	ces
=23	=23
8.gn	pa^-
16ccn	-les
4ccn}	fleurs}
4r	.
=24	=24
8r	.
{8a-	{A
12a-	no-
12a-	-tre
12b-	san-
8cc-	-glot
8b-	qui
=25	=25
8an	se
8ddn	la-
4dd	-men-
4dd#	-te
=26	=26
4.dd#	El-
8ee	-le
8ff#	-re/-
8ee	-pon-
=27	=27
4.b	-dra
8ccn	par
8dd	la
8ccn	tour-
=28	=28
4e	-men-
8fn	-te
8cn	des
8d	flots
8cn	hur-
=29	=29
2.B}	-leurs.}
=30	=30
4r	.
4r	.
8r	.
{8g	{Pleu-
=31	=31
*k[b-e-a-d-g-]	*
8cc	-rons
16bn	nos
16bn	cha-
8.gn	-grins,
16gn	cha-
8.f#	-cun
16f#	le
=32	=32
2gn	no^-
4gn}	-tre;}
=33	=33
4r	.
4r	.
8a	.
{16a-	{U-
16a-	-ne
=34	=34
8.dd-	lar-
16cc	-me
4a-	tom-
4a-}	-be,}
=35	=35
4r	.
4r	.
{8.b--	{Puis
16b--	une
=36	=36
2a-	au-
4a-}	-tre,
=36	=36
4r	.
8r	.
{8an	{Peut-
12an	-e^-
12b-	-tre
12cc	toi-
=37	=37
4.dd-	-me^me,
8dd-	o^
8.b-	tris-
16b-	-te
=38	=38
[4cc	mer
8cc]}	|}
8r	.
{8.b-	{Mer
16b-	au
=39	=39
8.cc-	gou^t
16cc-	de
4cc-	larme
12c-	a^cre
12b-	et
12a-	sa-
=40	=40
2g-	-le/-
4f}	-e,}
=41	=41
4r	.
4r	.
{4b-	{Es-
=42	=42
2cc	-tu
8b-	de
8dd-	la
=43	=43
4.cc	terre
8ff	in-
8dd-	-con-
8b-	-so-
=44	=44
2cc	-le/-
4ddn	|
=45	=45
4.ee-	e
8ee-	le
8.een	pleur
16een	a-
=46	=46
[2.ff	-mer!
=47	=47
2.ff_	|
=48	=48
4ff]}	|}
4r	.
4r	.
==	==
*-	*-
